X: 1
T: An Feirin
M: 4/4
L: 1/8
R: reel
K: Dmaj
A|: DAAD A2 DA | A2 DA GE =c2 | DAAD AD D2 | d=cAG FGEF |
DAAD A2 DA | A2 DA GE =c2 | DAAD AD D2 | d=cAG FGEF :|
|:Add^c d2 Ad | d2 Ad =c4 | AddA d2 ed | =cAGE AD D2 |
Add^c d2 Ad | d2 Ad =c4 | de=fe d=cAd | =cAGE AD D2 :|
